src/Pure/16/symbolic/devices/media-optical-audio-symbolic.svg

<?xml version="1.0" encoding="UTF-8" standalone="no"?>
<!-- Created with Inkscape (http://www.inkscape.org/) -->

<svg
   width="16"
   height="16"
   viewBox="0 0 16 16"
   version="1.1"
   id="svg1"
   inkscape:version="1.4.2 (ebf0e940d0, 2025-05-08)"
   sodipodi:docname="media-optical-audio-symbolic.svg"
   xmlns:inkscape="http://www.inkscape.org/namespaces/inkscape"
   xmlns:sodipodi="http://sodipodi.sourceforge.net/DTD/sodipodi-0.dtd"
   xmlns="http://www.w3.org/2000/svg"
   xmlns:svg="http://www.w3.org/2000/svg">
  <sodipodi:namedview
     id="namedview1"
     pagecolor="#ffffff"
     bordercolor="#000000"
     borderopacity="0.25"
     inkscape:showpageshadow="2"
     inkscape:pageopacity="0.0"
     inkscape:pagecheckerboard="0"
     inkscape:deskcolor="#d1d1d1"
     inkscape:document-units="px"
     inkscape:zoom="49.6875"
     inkscape:cx="8"
     inkscape:cy="8"
     inkscape:window-width="1920"
     inkscape:window-height="1010"
     inkscape:window-x="0"
     inkscape:window-y="0"
     inkscape:window-maximized="1"
     inkscape:current-layer="svg1" />
  <defs
     id="defs1">
    <style
       id="current-color-scheme"
       type="text/css">
        .ColorScheme-Text { color:#363636; }
     </style>
  </defs>
  <path
     id="path1"
     style="fill:currentColor;fill-opacity:1"
     class="ColorScheme-Text"
     d="M 8 0 A 8 8 0 0 0 0 8 A 8 8 0 0 0 8 16 A 8 8 0 0 0 11 15.416016 L 11 14.324219 A 7 7 0 0 1 8 15 A 7 7 0 0 1 1 8 A 7 7 0 0 1 8 1 A 7 7 0 0 1 15 8 A 7 7 0 0 1 14.708984 10 L 15.746094 10 A 8 8 0 0 0 16 8 A 8 8 0 0 0 8 0 z M 8 5 A 3 3 0 0 0 5 8 A 3 3 0 0 0 8 11 A 3 3 0 0 0 11 8 A 3 3 0 0 0 8 5 z M 8 6 A 2 2 0 0 1 10 8 A 2 2 0 0 1 8 10 A 2 2 0 0 1 6 8 A 2 2 0 0 1 8 6 z " />
  <path
     id="path1-5"
     style="fill:currentColor;fill-opacity:1"
     class="ColorScheme-Text"
     d="M 13.480469 11.023438 C 13.125669 11.023438 12.999932 11.201376 13 11.353516 L 13 14 C 12.86046 13.95795 12.71032 13.944151 12.5625 13.962891 C 12.30491 13.995401 12.073539 14.117588 11.912109 14.304688 C 11.750659 14.491788 11.677731 14.722988 11.707031 14.955078 C 11.761401 15.385938 12.166084 15.710938 12.646484 15.710938 C 12.691594 15.710938 12.738043 15.706872 12.783203 15.701172 C 13.281163 15.638322 13.640625 15.242989 13.640625 14.761719 L 13.640625 12.166016 C 13.678005 12.163516 13.715433 12.162109 13.751953 12.162109 C 14.190983 12.162109 14.597235 12.345899 14.921875 12.693359 C 15.055695 12.836599 15.147865 12.979939 15.203125 13.074219 C 15.216705 13.097319 15.243021 13.108216 15.269531 13.103516 C 15.295941 13.098826 15.317466 13.079114 15.322266 13.052734 C 15.375506 12.760334 15.418055 12.200157 15.109375 11.742188 C 14.831675 11.330148 14.334609 11.09075 13.630859 11.03125 L 13.628906 11.03125 C 13.577016 11.02535 13.526849 11.023438 13.480469 11.023438 z " />
</svg>

<svg version="1.1" viewBox="0 0 16 16" xmlns="http://www.w3.org/2000/svg">
 <defs>
  <style id="current-color-scheme" type="text/css">.ColorScheme-Text { color:#363636; }</style>
 </defs>
 <path class="ColorScheme-Text" d="m13.48 11.023c0.04638 0 0.09643 0.0033 0.14832 0.0092h0.0019c0.70375 0.0595 1.2018 0.29841 1.4795 0.71045 0.30868 0.45797 0.26564 1.0168 0.2124 1.3092-0.0048 0.02638-0.02669 0.04658-0.0531 0.05127-0.02651 0.0047-0.05234-0.0062-0.06592-0.0293-0.05526-0.09428-0.14816-0.23762-0.28198-0.38086-0.32464-0.34746-0.72917-0.53101-1.1682-0.53101-0.03652 0-0.07432 0.0012-0.1117 0.0037v2.5964c0 0.48127-0.3608 0.87648-0.85876 0.93933-0.04516 0.0057-0.09039 0.0092-0.1355 0.0092-0.4804 0-0.88496-0.32536-0.93933-0.75622-0.0293-0.23209 0.04363-0.46292 0.20508-0.65002 0.16143-0.1871 0.39243-0.30807 0.65002-0.34058 0.14782-0.01874 0.29808-0.005505 0.43762 0.036554v-2.6477c-6.8e-5 -0.15214 0.12487-0.32965 0.47967-0.32965z" fill="currentColor"/>
 <g transform="translate(-1233,-61)" color="#bebebe">
  <path transform="translate(1233,61)" d="m8 5c-1.68 0-3 1.32-3 3s1.32 3 3 3 3-1.32 3-3-1.32-3-3-3zm0.00586 1.0059a2.002 2.002 0 0 1 1.9961 1.9961 2.002 2.002 0 0 1-1.9961 1.9961c-1.098 0-2.0137-0.89709-2.0137-1.9961 0-1.098 0.91567-1.9961 2.0137-1.9961z" fill="#363636" style="font-feature-settings:normal;font-variant-alternates:normal;font-variant-caps:normal;font-variant-ligatures:normal;font-variant-numeric:normal;font-variant-position:normal;isolation:auto;mix-blend-mode:normal;shape-padding:0;text-decoration-color:#000000;text-decoration-line:none;text-decoration-style:solid;text-indent:0;text-orientation:mixed;text-transform:none"/>
 </g>
 <path d="m8 0a8 8 0 0 0-8 8 8 8 0 0 0 8 8 8 8 0 0 0 3-0.58398v-1.0918a7 7 0 0 1-3 0.67578 7 7 0 0 1-7-7 7 7 0 0 1 6.9062-7 7 7 0 0 1 0.09375 0 7 7 0 0 1 7 7 7 7 0 0 1-0.29297 2h1.0391a8 8 0 0 0 0.25391-2 8 8 0 0 0-8-8z" fill="#363636"/>
</svg>
